!!!!SEGMENT: pl-kk--kk-i-331_costanzi-giovanni-battista--ego-sum-panis-vivus.krn
!!!cenid: 17xx:1932
!!!COM: Costanzi, Giovanni Battista
!!!COM-rismID: pe20000434
!!!CDT: 1704-1778
!!!CNT: Italian
!!!OTL: Ego sum panis vivus
!!!PDT:
!!!AGN: Sacred
!!!SMS-siglum: PL-Kk
!!!SMS-shelfmark: Kk.I.331
!!!SMS-shelfwork: W
!!!SMS-variant:
!!!SMS-altvar:
!!!NIFC-rismSourceID: 1001143635
!!!NIFC-islandoraID: pl-kk:5598
!!!URL-pdf-islandora: https://repozytorium.nifc.pl/islandora/object/pl-kk%3A5598/datastream/PDF/view
!!!URL-scan: https://polish.musicsources.pl/pl/lokalizacje/galeria/rekopisy/5949 @EN{Scan on Polish Music Sources Website} @PL{Skany w portalu Dziedzictwo Muzyki Polskiej w otwartym dostępie}
!!!ONB-nifc:
!!!AIN: 1 alto 1 empty 1 organ 1 tenor 1 vox
!!!key:
**kern	**dynam	**fba	**kern	**text	**dynam	**kern	**text	**dynam	**kern	**text	**dynam	**kern	**text	**dynam
*part5	*part5	*	*part4	*part4	*part4	*part3	*part3	*part3	*part2	*part2	*part2	*part1	*part1	*part1
*staff5	*	*	*staff4	*staff4	*	*staff3	*staff3	*	*staff2	*staff2	*	*staff1	*staff1	*
*Iorgan	*	*	*Iempty	*	*	*Itenor	*	*	*Ialto	*	*	*Ivox	*	*
*I"Organo	*	*	*I"A. 4 Soli Baſso	*	*	*I"Tenore	*	*	*I"Alto	*	*	*I"Canto	*	*
*I'org	*	*	*I'B	*	*	*I'T	*	*	*I'A	*	*	*I'S	*	*
*clefF4	*	*	*clefF4	*	*	*clefC4	*	*	*clefC3	*	*	*clefC1	*	*
*k[f#]	*	*	*k[f#]	*	*	*k[f#]	*	*	*k[f#]	*	*	*k[f#]	*	*
*G:	*	*	*G:	*	*	*G:	*	*	*G:	*	*	*G:	*	*
*M3/4	*	*	*M3/4	*	*	*M3/4	*	*	*M3/4	*	*	*M3/4	*	*
=1	=1	=1	=1	=1	=1	=1	=1	=1	=1	=1	=1	=1	=1	=1
*2\right	*	*	*2\right	*	*	*2\right	*	*	*2\right	*	*	*2\right	*	*
!LO:TX:t=Soli	!	!	!	!	!	!	!	!	!	!	!	!	!	!
2.G\	.	.	2.G\	E-	.	2.d\	E-	.	2.g\	E-	.	2.b\	E-	.
=2	=2	=2	=2	=2	=2	=2	=2	=2	=2	=2	=2	=2	=2	=2
2.D\	.	.	2.D\	-go	.	2.d\	-go	.	2.f#\	-go	.	2.a\	-go	.
=3	=3	=3	=3	=3	=3	=3	=3	=3	=3	=3	=3	=3	=3	=3
!LO:TX:t=P:problem=all\right&colon; global	!	!	!LO:TX:b:i:t=7	!	!	!LO:TX:b:i:t=14	!	!	!LO:TX:b:i:t=14	!	!	!	!	!
!LO:TX:t=C.	!	!	!	!	!	!	!	!	!	!	!	!	!	!
!	!	!	!LO:N:vis=00	!	!	!LO:N:vis=00	!	!	!LO:N:vis=00	!	!	!	!	!
4G\	.	.	0.r	.	.	0.r	.	.	0.r	.	.	2.g\	e-	.
4B\	.	.	.	.	.	.	.	.	.	.	.	.	.	.
4G\	.	.	.	.	.	.	.	.	.	.	.	.	.	.
=4	=4	=4	=4	=4	=4	=4	=4	=4	=4	=4	=4	=4	=4	=4
4F#\	.	6	.	.	.	.	.	.	.	.	.	2dd\	-go	.
4E\	.	.	.	.	.	.	.	.	.	.	.	.	.	.
!	!	!	!	!	!	!	!	!	!	!	!	!LO:TX:t=P:problem=4\right&colon; global	!	!
4D\	.	.	.	.	.	.	.	.	.	.	.	4dd\	sum	.
=5	=5	=5	=5	=5	=5	=5	=5	=5	=5	=5	=5	=5	=5	=5
4BB/	.	6	.	.	.	.	.	.	.	.	.	2gg\	Pa-	.
4AA/	.	.	.	.	.	.	.	.	.	.	.	.	.	.
4GG/	.	.	.	.	.	.	.	.	.	.	.	4g/	-nis	.
=6	=6	=6	=6	=6	=6	=6	=6	=6	=6	=6	=6	=6	=6	=6
2BB/	.	6	.	.	.	.	.	.	.	.	.	4r	.	.
.	.	.	.	.	.	.	.	.	.	.	.	(4dd\	sum	.
4BB/	.	.	.	.	.	.	.	.	.	.	.	4b\)	.	.
=7	=7	=7	=7	=7	=7	=7	=7	=7	=7	=7	=7	=7	=7	=7
!	!	!	!LO:N:vis=0	!	!	!LO:N:vis=00	!	!	!LO:N:vis=00	!	!	!	!	!
2C/	.	6	1.r	.	.	0.r	.	.	0.r	.	.	2a\	pa-	.
4D/	.	6	.	.	.	.	.	.	.	.	.	4b\	.	.
=8	=8	=8	=8	=8	=8	=8	=8	=8	=8	=8	=8	=8	=8	=8
4E\	.	6	.	.	.	.	.	.	.	.	.	4cc\	.	.
4F#X\	.	5	.	.	.	.	.	.	.	.	.	4cc\	-nis	.
!	!	!	!	!	!	!	!	!	!	!	!	!LO:TX:t=P:problem=8\right&colon; global	!	!
4F#\	.	.	.	.	.	.	.	.	.	.	.	8ee\L	.	.
.	.	.	.	.	.	.	.	.	.	.	.	8cc\J	.	.
=9	=9	=9	=9	=9	=9	=9	=9	=9	=9	=9	=9	=9	=9	=9
4G\	.	.	2.r	.	.	.	.	.	.	.	.	2cc\	vi-	.
.	.	4	.	.	.	.	.	.	.	.	.	.	.	.
4G\	.	.	.	.	.	.	.	.	.	.	.	.	.	.
.	.	3	.	.	.	.	.	.	.	.	.	.	.	.
4G\	.	.	.	.	.	.	.	.	.	.	.	4b\	-vus	.
=10	=10	=10	=10	=10	=10	=10	=10	=10	=10	=10	=10	=10	=10	=10
!	!	!	!	!	!	!	!	!	!	!	!	!LO:TX:b:i:t=12	!	!
!	!	!	!	!	!	!	!	!	!	!	!	!LO:N:vis=00	!	!
4D\	.	.	2.D\	e-	.	.	.	.	.	.	.	0.r	.	.
!LO:TX:t=B.o	!	!	!	!	!	!	!	!	!	!	!	!	!	!
4D\	.	.	.	.	.	.	.	.	.	.	.	.	.	.
4D\	.	.	.	.	.	.	.	.	.	.	.	.	.	.
=11	=11	=11	=11	=11	=11	=11	=11	=11	=11	=11	=11	=11	=11	=11
!	!	!	!	!	!	!LO:N:vis=00	!	!	!LO:N:vis=00	!	!	!	!	!
4C#X/	.	.	2A\	-go	.	0.r	.	.	0.r	.	.	.	.	.
4C#/	.	.	.	.	.	.	.	.	.	.	.	.	.	.
!	!	!	!LO:TX:t=P:problem=4\right&colon; global	!	!	!	!	!	!	!	!	!	!	!
4C#/	.	.	4A\	sum	.	.	.	.	.	.	.	.	.	.
=12	=12	=12	=12	=12	=12	=12	=12	=12	=12	=12	=12	=12	=12	=12
4BB/	.	.	2d\	pa-	.	.	.	.	.	.	.	.	.	.
4BB/	.	.	.	.	.	.	.	.	.	.	.	.	.	.
4BB/	.	.	4D\	-nis	.	.	.	.	.	.	.	.	.	.
=13	=13	=13	=13	=13	=13	=13	=13	=13	=13	=13	=13	=13	=13	=13
4D\	.	.	(2D\	sum	.	.	.	.	.	.	.	.	.	.
4D\	.	.	.	.	.	.	.	.	.	.	.	.	.	.
4F#\	.	.	4F#\)	.	.	.	.	.	.	.	.	.	.	.
=14	=14	=14	=14	=14	=14	=14	=14	=14	=14	=14	=14	=14	=14	=14
!	!	!	!	!	!	!	!	!	!	!	!	!LO:N:vis=00	!	!
4E\	.	.	4E\	pa-	.	.	.	.	.	.	.	0.r	.	.
4C#X/	.	.	4C#X/	.	.	.	.	.	.	.	.	.	.	.
4BB/	.	.	4BB/	.	.	.	.	.	.	.	.	.	.	.
=15	=15	=15	=15	=15	=15	=15	=15	=15	=15	=15	=15	=15	=15	=15
!	!	!	!	!	!	!LO:N:vis=0	!	!	!LO:N:vis=0	!	!	!	!	!
4AA/	.	.	4AA/	.	.	1.r	.	.	1.r	.	.	.	.	.
4A\	.	#	4A\	.	.	.	.	.	.	.	.	.	.	.
4G\	.	.	4G\	-nis	.	.	.	.	.	.	.	.	.	.
=16	=16	=16	=16	=16	=16	=16	=16	=16	=16	=16	=16	=16	=16	=16
!LO:N:vis=16	!	!	!	!	!	!	!	!	!	!	!	!	!	!
8F#\L	.	.	8F#\L	ui-	.	.	.	.	.	.	.	.	.	.
!LO:N:vis=16	!	!	!	!	!	!	!	!	!	!	!	!	!	!
8E\J	.	.	8E\J	.	.	.	.	.	.	.	.	.	.	.
2D\	.	.	2D\	-uvs	.	.	.	.	.	.	.	.	.	.
=17	=17	=17	=17	=17	=17	=17	=17	=17	=17	=17	=17	=17	=17	=17
!	!	!	!LO:TX:b:i:t=6	!	!	!LO:TX:t=P:problem=4\right&colon; global	!	!	!LO:TX:t=P:problem=4\right&colon; global	!	!	!	!	!
!LO:TX:t=A 3.	!	!	!	!	!	!	!	!	!	!	!	!	!	!
!	!	!	!LO:N:vis=00	!	!	!	!	!	!	!	!	!	!	!
4D\	.	.	0.r	.	.	(4d\	qui	.	4f#\	qui	.	.	.	.
4F#\	.	.	.	.	.	4f#\)	.	.	4a\	.	.	.	.	.
4D\	.	.	.	.	.	4f#\	de	.	4a\	de	.	.	.	.
=18	=18	=18	=18	=18	=18	=18	=18	=18	=18	=18	=18	=18	=18	=18
!	!	!	!	!	!	!	!	!	!	!	!	!LO:N:vis=00	!	!
2.E\	.	4 9	.	.	.	4f#\	Cae-	.	4a\	Cae-	.	0.r	.	.
!	!	!	!	!	!	!LO:TX:t=P:problem=8\right&colon; global	!	!	!LO:TX:t=P:problem=8\right&colon; global	!	!	!	!	!
!	!	!	!	!	!	!LO:N:vis=16	!	!	!	!	!	!	!	!
.	.	4	.	.	.	8e\L	.	.	8g\L	.	.	.	.	.
!	!	!	!	!	!	!LO:N:vis=16	!	!	!	!	!	!	!	!
.	.	.	.	.	.	8d\J	.	.	8f#\J	.	.	.	.	.
.	.	3	.	.	.	4e\	-lo	.	4g\	-lo	.	.	.	.
=19	=19	=19	=19	=19	=19	=19	=19	=19	=19	=19	=19	=19	=19	=19
4E\	.	5	.	.	.	2e\	qui	.	2g\	qui	.	.	.	.
4E\	.	.	.	.	.	.	.	.	.	.	.	.	.	.
4E\	.	.	.	.	.	4e\	de	.	4g\	de	.	.	.	.
=20	=20	=20	=20	=20	=20	=20	=20	=20	=20	=20	=20	=20	=20	=20
2.F#\	.	7	.	.	.	4e\	Cae-	.	4g\	cae-	.	.	.	.
.	.	6	.	.	.	8d\L	.	.	8f#\L	.	.	.	.	.
.	.	.	.	.	.	8c#X\J	.	.	8e\J	.	.	.	.	.
.	.	.	.	.	.	4d\	-lo	.	4f#\	-lo	.	.	.	.
=21	=21	=21	=21	=21	=21	=21	=21	=21	=21	=21	=21	=21	=21	=21
!	!	!	!LO:N:vis=0	!	!	!	!	!	!	!	!	!	!	!
4D\	.	.	1.r	.	.	4d\	de-	.	4f#\	des-	.	.	.	.
4F#\	.	.	.	.	.	4.d\	-scen-	.	4.f#\	-cen-	.	.	.	.
4D\	.	.	.	.	.	.	.	.	.	.	.	.	.	.
!	!	!	!	!	!	!LO:TX:t=P:problem=16\right&colon; global	!	!	!LO:TX:t=P:problem=16\right&colon; global	!	!	!	!	!
.	.	.	.	.	.	16c#X\LL	.	.	16e\LL	.	.	.	.	.
.	.	.	.	.	.	16B\JJ	.	.	16d\JJ	.	.	.	.	.
=22	=22	=22	=22	=22	=22	=22	=22	=22	=22	=22	=22	=22	=22	=22
!	!	!	!	!	!	!LO:SIC:v:s=4c#	!	!	!	!	!	!	!	!
4A\	.	.	.	.	.	4c\	-di	.	4e\	-di	.	4a\	e-	.
4c#X\	.	.	.	.	.	4r	.	.	4r	.	.	4a\	-go	.
4A\	.	.	.	.	.	4r	.	.	4r	.	.	4a\	sum	.
=23	=23	=23	=23	=23	=23	=23	=23	=23	=23	=23	=23	=23	=23	=23
!LO:TX:a:i:t=B .	!	!	!	!	!	!LO:TX:b:i:t=2	!	!	!LO:TX:b:i:t=1	!	!	!	!	!
!	!	!	!	!	!	!LO:N:vis=0	!	!	!	!	!	!	!	!
4D\	.	.	4D\	E-	.	1.r	.	.	2.r	.	.	8dd\L	pa-	.
.	.	.	.	.	.	.	.	.	.	.	.	8cc#X\	.	.
4F#\	.	.	4D\	-go	.	.	.	.	.	.	.	8dd\	.	.
.	.	.	.	.	.	.	.	.	.	.	.	8ee\	.	.
4D\	.	.	4D\	s(um)	.	.	.	.	.	.	.	8ff#\	.	.
.	.	.	.	.	.	.	.	.	.	.	.	8gg\J	.	.
=24	=24	=24	=24	=24	=24	=24	=24	=24	=24	=24	=24	=24	=24	=24
4AA/	.	.	4A\	pa-	.	.	.	.	4a\	e-	.	4aa\	.	.
8AA/L	.	.	8AA/L	.	.	.	.	.	4a\	-go	.	4a\	-nis	.
8BB/	.	.	8BB/	.	.	.	.	.	.	.	.	.	.	.
8C#X/	.	.	8C#X/	.	.	.	.	.	4a\	sum	.	4a\	sum	.
8AA/J	.	.	8AA/J	.	.	.	.	.	.	.	.	.	.	.
=25	=25	=25	=25	=25	=25	=25	=25	=25	=25	=25	=25	=25	=25	=25
2.F#\	.	.	2F#\	.	.	4d\	e-	.	8d\L	pa-	.	2.a\	pa-	.
.	.	.	.	.	.	.	.	.	8c#X\	.	.	.	.	.
.	.	.	.	.	.	4d\	-go	.	8d\	.	.	.	.	.
.	.	.	.	.	.	.	.	.	8e\	.	.	.	.	.
.	.	.	4F#\	-nis	.	4d\	sum	.	8f#\	.	.	.	.	.
.	.	.	.	.	.	.	.	.	8g\J	.	.	.	.	.
=26	=26	=26	=26	=26	=26	=26	=26	=26	=26	=26	=26	=26	=26	=26
2.D\	.	.	2D\	ui-	.	8d\L	pa-	.	2a\	.	.	2.ff#\	-nis	.
.	.	.	.	.	.	8c#X\	.	.	.	.	.	.	.	.
.	.	.	.	.	.	8d\	.	.	.	.	.	.	.	.
.	.	.	.	.	.	8e\J	.	.	.	.	.	.	.	.
.	.	.	4D\	-uus	.	8f#\L	-nis	.	4a\	-nis	.	.	.	.
.	.	.	.	.	.	8g\J	.	.	.	.	.	.	.	.
=27	=27	=27	=27	=27	=27	=27	=27	=27	=27	=27	=27	=27	=27	=27
!LO:TX:t=P:problem=nieprawidlowe cyfrowanie	!	!	!	!	!	!	!	!	!	!	!	!	!	!
2.A\	.	6 4	2A\	qui	.	4a\	ui-	.	8.e\L	vi-	.	4.cc#X\	ui-	.
.	.	.	.	.	.	.	.	.	16d\Jk	.	.	.	.	.
.	.	.	.	.	.	4A/	-uus	.	4c#X\	-uvs	.	.	.	.
.	.	.	.	.	.	.	.	.	.	.	.	8b\	.	.
.	.	.	4A\	de	.	[4f#\	pa-	.	[4a\	pa-	.	4a\	-uus	.
=28	=28	=28	=28	=28	=28	=28	=28	=28	=28	=28	=28	=28	=28	=28
!	!	!	!	!	!	!	!	!	!	!	!	!LO:TX:b:i:t=1	!	!
4d\	.	.	4d\	Cae-	.	4f#\]	.	.	4a\]	.	.	2.r	.	.
4e\	.	.	4e\	.	.	4e\	-niſ	.	2gn\	-nis	.	.	.	.
4d\	.	.	4d\	.	.	[4e\	ui-	.	.	.	.	.	.	.
=29	=29	=29	=29	=29	=29	=29	=29	=29	=29	=29	=29	=29	=29	=29
4c#X\	.	.	4c#X\	.	.	8e\L]	.	.	8g\L	vi-	.	4r	.	.
.	.	.	.	.	.	8d\J	.	.	8f#\J	.	.	.	.	.
4d\	.	.	4d\	.	.	4d\	-uus	.	4f#\	-uus	.	4ff#\	qui	.
4c#\	.	.	4c#\	.	.	[4d\	qui	.	4r	.	.	4ff#\	de	.
=30	=30	=30	=30	=30	=30	=30	=30	=30	=30	=30	=30	=30	=30	=30
!	!	!	!	!	!	!	!	!	!LO:TX:b:i:t=3	!	!	!	!	!
!	!	!	!	!	!	!	!	!	!LO:N:vis=0	!	!	!	!	!
4B\	.	5	4B\	.	.	4d\]	.	.	1.r	.	.	4ff#\	Cae-	.
4c#X\	.	.	4c#X\	.	.	[2c#X\	de	.	.	.	.	4ee\	-lo	.
4B\	.	.	4B\	.	.	.	.	.	.	.	.	4ee\	de-	.
=31	=31	=31	=31	=31	=31	=31	=31	=31	=31	=31	=31	=31	=31	=31
4A\	.	#	4A\	.	.	4c#\]	.	.	.	.	.	8ee\L	-scen-	.
.	.	.	.	.	.	.	.	.	.	.	.	8cc#X\J	.	.
4B\	.	.	4B\	.	.	[2B\	cae-	.	.	.	.	[2dd\	-di	.
4A\	.	.	4A\	.	.	.	.	.	.	.	.	.	.	.
=32	=32	=32	=32	=32	=32	=32	=32	=32	=32	=32	=32	=32	=32	=32
8G\L	.	.	8G\L	.	.	4B\]	.	.	2.r	.	.	4dd\]	.	.
8B\	.	.	8B\	.	.	.	.	.	.	.	.	.	.	.
8A\	.	.	8A\	.	.	4e\	.	.	.	.	.	4cc#X\	de	.
8G\	.	.	8G\	.	.	.	.	.	.	.	.	.	.	.
8F#\	.	.	8F#\	.	.	8d\L	.	.	.	.	.	8dd\L	.	.
8E\J	.	.	8E\J	.	.	8c#X\J	.	.	.	.	.	8ee\J	.	.
=33	=33	=33	=33	=33	=33	=33	=33	=33	=33	=33	=33	=33	=33	=33
!LO:TX:t=à 4	!	!	!	!	!	!	!	!	!	!	!	!	!	!
4.F#\	.	.	4.F#\	.	.	8.d\L	.	.	8.a\L	de-	.	8.ff#\L	Cae-	.
!	!	!	!	!	!	!	!	!	!	!	!	!LO:TX:t=P:problem=16\right&colon; global	!	!
.	.	.	.	.	.	16e\Jk	.	.	16g\Jk	.	.	16ee\Jk	.	.
.	.	.	.	.	.	4f#\	-lo	.	4f#\	.	.	4dd\	-lo	.
8E\	.	.	8E\	-lo	.	.	.	.	.	.	.	.	.	.
4D\	.	.	4D\	de-	.	4f#\	de-	.	4a\	.	.	4dd\	des-	.
=34	=34	=34	=34	=34	=34	=34	=34	=34	=34	=34	=34	=34	=34	=34
4A\	.	4	4A\	-scen-	.	4f#\	-scen-	.	2a\	-scen-	.	4dd\	-cen-	.
2AA/	.	#	2AA/	-di	.	8e\L	.	.	.	.	.	2cc#X\	-di	.
.	.	.	.	.	.	8d\J	.	.	.	.	.	.	.	.
.	.	.	.	.	.	4e\	-di	.	4a\	-di	.	.	.	.
=35	=35	=35	=35	=35	=35	=35	=35	=35	=35	=35	=35	=35	=35	=35
!	!	!	!	!	!	!LO:TX:b:i:t=2	!	!	!LO:TX:b:i:t=5	!	!	!LO:TX:b:i:t=2	!	!
!	!	!	!	!	!	!LO:N:vis=0	!	!	!LO:N:vis=00	!	!	!LO:N:vis=0	!	!
4AA/	.	.	(4AA/	qui	.	1.r	.	.	0.r	.	.	1.r	.	.
.	.	#	.	.	.	.	.	.	.	.	.	.	.	.
4A\	.	.	4A\)	.	.	.	.	.	.	.	.	.	.	.
4G\	.	.	4G\	de	.	.	.	.	.	.	.	.	.	.
=36	=36	=36	=36	=36	=36	=36	=36	=36	=36	=36	=36	=36	=36	=36
4F#\	.	.	4F#\	Cae-	.	.	.	.	.	.	.	.	.	.
4E\	.	.	4E\	-lo	.	.	.	.	.	.	.	.	.	.
4D\	.	.	4D\	de-	.	.	.	.	.	.	.	.	.	.
=37	=37	=37	=37	=37	=37	=37	=37	=37	=37	=37	=37	=37	=37	=37
!LO:TX:a:t=c T.	!	!	!	!	!	!	!	!	!	!	!	!	!	!
2.AA/	.	.	[2.AA/	-scen-	.	4e\	e-	.	.	.	.	4cc#X\	e-	.
.	.	.	.	.	.	4e\	-go	.	.	.	.	4cc#\	-go	.
.	.	.	.	.	.	4e\	sum	.	.	.	.	4cc#\	sum	.
=38	=38	=38	=38	=38	=38	=38	=38	=38	=38	=38	=38	=38	=38	=38
2.AA/	.	6 4	2.AA/]	.	.	2f#\	pa-	.	.	.	.	2dd\	pa-	.
.	.	.	.	.	.	4f#\	-nis	.	.	.	.	4dd\	-nis	.
=39	=39	=39	=39	=39	=39	=39	=39	=39	=39	=39	=39	=39	=39	=39
2.AA/	.	6 4	2.AA/	-di	.	4f#\	vi-	.	2.r	.	.	4dd\	ui-	.
.	.	#	.	.	.	2e\	-uus	.	.	.	.	2cc#X\	-uus	.
=40	=40	=40	=40	=40	=40	=40	=40	=40	=40	=40	=40	=40	=40	=40
!	!	!	!	!	!	!LO:TX:b:i:t=1	!	!	!	!	!	!	!	!
2.D\	.	.	2.r	.	.	2.r	.	.	(4f#\	qui	.	(4dd\	qui	.
.	.	.	.	.	.	.	.	.	4g\)	.	.	4ee\)	.	.
.	.	.	.	.	.	.	.	.	4a\	de	.	4ff#\	de	.
=41	=41	=41	=41	=41	=41	=41	=41	=41	=41	=41	=41	=41	=41	=41
!LO:TX:b:t=a 4	!	!	!	!	!	!	!	!	!	!	!	!	!	!
2.G\	.	.	(4G\	qui	.	(4B\	qui	.	2b\	cae-	.	2gg\	Cae-	.
.	.	.	4A\)	.	.	4c#X\)	.	.	.	.	.	.	.	.
.	.	.	4B\	de	.	4d\	de	.	4b\	-lo	.	4gg\	-lo	.
=42	=42	=42	=42	=42	=42	=42	=42	=42	=42	=42	=42	=42	=42	=42
2.c#X\	.	.	4c#X\	Cae-	.	4e\	Cae-	.	4b\	de-	.	4gg\	de-	.
.	.	.	4c#\	-lo	.	4e\	-lo	.	4a\	.	.	4ff#\	.	.
.	.	.	4c#\	de	.	4e\	de-	.	4g\	.	.	4ee\	.	.
=43	=43	=43	=43	=43	=43	=43	=43	=43	=43	=43	=43	=43	=43	=43
2d\	.	.	2d\	scen-	.	2d\	-scen-	.	2f#\	-scen-	.	2dd\	-scen-	.
4A\	.	.	4A\	-di	.	4A\	-di	.	4e\	-di	.	4cc#X\	-di	.
=44	=44	=44	=44	=44	=44	=44	=44	=44	=44	=44	=44	=44	=44	=44
!	!	!	!LO:TX:b:i:t=4	!	!	!LO:TX:b:i:t=2	!	!	!LO:TX:b:i:t=1	!	!	!	!	!
!LO:TX:t=C.	!	!	!	!	!	!	!	!	!	!	!	!	!	!
!	!	!	!LO:N:vis=00	!	!	!LO:N:vis=0	!	!	!	!	!	!	!	!
2.AA/	.	#	0.r	.	.	1.r	.	.	2.r	.	.	4a\	e-	.
.	.	.	.	.	.	.	.	.	.	.	.	4aa\	-go	.
.	.	.	.	.	.	.	.	.	.	.	.	4gg\	sum	.
=45	=45	=45	=45	=45	=45	=45	=45	=45	=45	=45	=45	=45	=45	=45
2.AA/	.	6	.	.	.	.	.	.	4A/	e-	.	4ff#\	pa-	.
.	.	.	.	.	.	.	.	.	4a\	-go	.	4ff#\	-nis	.
.	.	5	.	.	.	.	.	.	4g\	sum	.	4ee\	sum	.
=46	=46	=46	=46	=46	=46	=46	=46	=46	=46	=46	=46	=46	=46	=46
2.AA/	.	6 4	.	.	.	4A\	pa-	.	2f#\	pa-	.	2dd\	pa-	.
.	.	.	.	.	.	4a\	.	.	.	.	.	.	.	.
.	.	#	.	.	.	4g\	-nis	.	4e\	-nis	.	4ee\	-nis	.
=47	=47	=47	=47	=47	=47	=47	=47	=47	=47	=47	=47	=47	=47	=47
2.AA/	.	.	.	.	.	2f#\	ui-	.	2d\	vi-	.	2a\	ui-	.
.	.	.	.	.	.	4e\	-uus	.	4c#X\	-uus	.	4a\	-uus	.
=48	=48	=48	=48	=48	=48	=48	=48	=48	=48	=48	=48	=48	=48	=48
!	!	!	!	!	!	!LO:TX:b:i:t=3	!	!	!LO:TX:b:i:t=3	!	!	!LO:TX:b:i:t=3	!	!
!LO:TX:i:t=B.	!	!	!	!	!	!	!	!	!	!	!	!	!	!
!	!	!	!	!	!	!LO:N:vis=0	!	!	!LO:N:vis=0	!	!	!LO:N:vis=0	!	!
4D/	.	.	(4D/	qui	.	1.r	.	.	1.r	.	.	1.r	.	.
4C#X/	.	.	4C#X/)	.	.	.	.	.	.	.	.	.	.	.
4BB/	.	.	4BB/	de	.	.	.	.	.	.	.	.	.	.
=49	=49	=49	=49	=49	=49	=49	=49	=49	=49	=49	=49	=49	=49	=49
2.AA/	.	.	2.AA/	cae-	.	.	.	.	.	.	.	.	.	.
=50	=50	=50	=50	=50	=50	=50	=50	=50	=50	=50	=50	=50	=50	=50
2.AA/	.	.	2.AA/	-lo	.	2.r	.	.	2.r	.	.	2.r	.	.
=51	=51	=51	=51	=51	=51	=51	=51	=51	=51	=51	=51	=51	=51	=51
!LO:TX:b:t=à 4	!	!	!	!	!	!	!	!	!	!	!	!	!	!
2A\	.	.	2.A\	de	.	2.e\	de	.	2.a\	de	.	2.cc#X\	de	.
4A\	.	.	.	.	.	.	.	.	.	.	.	.	.	.
=52	=52	=52	=52	=52	=52	=52	=52	=52	=52	=52	=52	=52	=52	=52
4d\	.	.	4d\	Cae-	.	2f#\	Cae-	.	4a\	Cae-	.	4dd\	Cae-	.
4F#\	.	.	4F#\	-lo	.	.	.	.	4a\	-lo	.	4dd\	-lo	.
4G\	.	.	4G\	de-	.	4d\	-lo	.	4b\	de-	.	4gg\	de-	.
=53	=53	=53	=53	=53	=53	=53	=53	=53	=53	=53	=53	=53	=53	=53
2.A\	.	4	2.A\	-scen-	.	8d\L	de-	.	2.a\	-scen-	.	8ff#\L	-scen-	.
.	.	#	.	.	.	8e\J	.	.	.	.	.	8gg\J	.	.
.	.	.	.	.	.	2c#X\	-scen-	.	.	.	.	2ee\	.	.
=54	=54	=54	=54	=54	=54	=54	=54	=54	=54	=54	=54	=54	=54	=54
4D\	.	.	2D\	-di	.	2d\	-di	.	2a\	-di	.	2.dd\	-di	.
4F#\	.	.	.	.	.	.	.	.	.	.	.	.	.	.
4D\	.	.	4r	.	.	4r	.	.	4r	.	.	.	.	.
=55	=55	=55	=55	=55	=55	=55	=55	=55	=55	=55	=55	=55	=55	=55
!	!	!	!LO:TX:b:i:t=11	!	!	!LO:TX:b:i:t=13	!	!	!LO:TX:b:i:t=2	!	!	!LO:TX:b:i:t=7	!	!
!	!	!	!LO:N:vis=00	!	!	!LO:N:vis=00	!	!	!LO:N:vis=0	!	!	!LO:N:vis=00	!	!
4G\	.	.	0.r	.	.	0.r	.	.	1.r	.	.	0.r	.	.
4E\	.	.	.	.	.	.	.	.	.	.	.	.	.	.
4A\	.	#	.	.	.	.	.	.	.	.	.	.	.	.
=56	=56	=56	=56	=56	=56	=56	=56	=56	=56	=56	=56	=56	=56	=56
4F#\	.	.	.	.	.	.	.	.	.	.	.	.	.	.
8E\L	.	.	.	.	.	.	.	.	.	.	.	.	.	.
8F#\J	.	.	.	.	.	.	.	.	.	.	.	.	.	.
4D\	.	.	.	.	.	.	.	.	.	.	.	.	.	.
=57	=57	=57	=57	=57	=57	=57	=57	=57	=57	=57	=57	=57	=57	=57
!LO:TX:t=A.	!	!	!	!	!	!	!	!	!	!	!	!	!	!
4D\	.	.	.	.	.	.	.	.	2.d\	Si	.	.	.	.
4d\	.	.	.	.	.	.	.	.	.	.	.	.	.	.
4d\	.	.	.	.	.	.	.	.	.	.	.	.	.	.
=58	=58	=58	=58	=58	=58	=58	=58	=58	=58	=58	=58	=58	=58	=58
4c#X\	.	.	.	.	.	.	.	.	2.a\	quis	.	.	.	.
4c#\	.	.	.	.	.	.	.	.	.	.	.	.	.	.
4c#\	.	.	.	.	.	.	.	.	.	.	.	.	.	.
=59	=59	=59	=59	=59	=59	=59	=59	=59	=59	=59	=59	=59	=59	=59
!	!	!	!LO:N:vis=00	!	!	!LO:N:vis=00	!	!	!	!	!	!LO:N:vis=0	!	!
4B\	.	5	0.r	.	.	0.r	.	.	2dd\	man-	.	1.r	.	.
4B\	.	.	.	.	.	.	.	.	.	.	.	.	.	.
4A\	.	.	.	.	.	.	.	.	4d\	-du-	.	.	.	.
=60	=60	=60	=60	=60	=60	=60	=60	=60	=60	=60	=60	=60	=60	=60
2G\	.	.	.	.	.	.	.	.	4e\	-ca-	.	.	.	.
.	.	.	.	.	.	.	.	.	4g\	-ve-	.	.	.	.
4D\	.	.	.	.	.	.	.	.	4a\	-rit	.	.	.	.
=61	=61	=61	=61	=61	=61	=61	=61	=61	=61	=61	=61	=61	=61	=61
2C#X/	.	7	.	.	.	.	.	.	(4b\	ex	.	2.r	.	.
.	.	6	.	.	.	.	.	.	4a\)	.	.	.	.	.
4C#/	.	5	.	.	.	.	.	.	4g\	hoc	.	.	.	.
=62	=62	=62	=62	=62	=62	=62	=62	=62	=62	=62	=62	=62	=62	=62
4D\	.	.	.	.	.	.	.	.	4g\	pa-	.	4r	.	.
4D\	.	.	.	.	.	.	.	.	4f#\	-ne	.	4r	.	.
!LO:TX:t=C.	!	!	!	!	!	!	!	!	!	!	!	!	!	!
4D\	.	.	.	.	.	.	.	.	4a\	Si	.	4ff#\	Si	.
=63	=63	=63	=63	=63	=63	=63	=63	=63	=63	=63	=63	=63	=63	=63
!	!	!	!LO:N:vis=0	!	!	!LO:N:vis=00	!	!	!	!	!	!	!	!
2.E\	.	4 9	1.r	.	.	0.r	.	.	4a\	quis	.	(4ff#\	quis	.
.	.	.	.	.	.	.	.	.	(4f#\	.	.	4dd\)	.	.
.	.	8 3	.	.	.	.	.	.	4g\)	.	.	4ee\	man-	.
=64	=64	=64	=64	=64	=64	=64	=64	=64	=64	=64	=64	=64	=64	=64
2.F#\	.	9	.	.	.	.	.	.	(4g\	man-	.	4ee\	.	.
.	.	.	.	.	.	.	.	.	4e\)	.	.	4cc#X\	.	.
.	.	8	.	.	.	.	.	.	4f#\	-du-	.	4dd\	-du-	.
=65	=65	=65	=65	=65	=65	=65	=65	=65	=65	=65	=65	=65	=65	=65
4D\	.	.	2.r	.	.	.	.	.	4f#\	-ca-	.	4dd\	-ca-	.
4A\	.	#	.	.	.	.	.	.	8g\L	.	.	8ee\L	.	.
.	.	.	.	.	.	.	.	.	8f#\J	.	.	8dd\J	.	.
4AA/	.	.	.	.	.	.	.	.	4e\	-ue-	.	4cc#X\	-ve-	.
=66	=66	=66	=66	=66	=66	=66	=66	=66	=66	=66	=66	=66	=66	=66
4D\	.	.	2.D\	Si	.	.	.	.	4d\	-rit	.	4dd\	-rit	.
!LO:TX:i:t=B.	!	!	!	!	!	!	!	!	!	!	!	!	!	!
4F#\	.	.	.	.	.	.	.	.	4r	.	.	4r	.	.
4D\	.	.	.	.	.	.	.	.	4r	.	.	4r	.	.
=67	=67	=67	=67	=67	=67	=67	=67	=67	=67	=67	=67	=67	=67	=67
!	!	!	!	!	!	!	!	!	!LO:TX:b:i:t=5	!	!	!LO:TX:b:i:t=5	!	!
!	!	!	!	!	!	!	!	!	!LO:N:vis=00	!	!	!LO:N:vis=00	!	!
4C#X/	.	.	2.A\	quis	.	2.r	.	.	0.r	.	.	0.r	.	.
4BB/	.	.	.	.	.	.	.	.	.	.	.	.	.	.
4AA/	.	.	.	.	.	.	.	.	.	.	.	.	.	.
=68	=68	=68	=68	=68	=68	=68	=68	=68	=68	=68	=68	=68	=68	=68
4D\	.	.	(4d\	man-	.	2.d\	ex	.	.	.	.	.	.	.
!LO:TX:t=T.	!	!	!	!	!	!	!	!	!	!	!	!	!	!
4F#\	.	.	4F#\)	.	.	.	.	.	.	.	.	.	.	.
4D\	.	.	4D\	-du-	.	.	.	.	.	.	.	.	.	.
=69	=69	=69	=69	=69	=69	=69	=69	=69	=69	=69	=69	=69	=69	=69
4G\	.	.	4G\	-ca-	.	2.e\	hoc	.	.	.	.	.	.	.
2A\	.	.	2A\	-ue-	.	.	.	.	.	.	.	.	.	.
=70	=70	=70	=70	=70	=70	=70	=70	=70	=70	=70	=70	=70	=70	=70
2.D\	.	.	4D\	-rit	.	(4f#\	pa-	.	.	.	.	.	.	.
.	.	.	4D\	ex	.	4e\)	.	.	.	.	.	.	.	.
.	.	.	4D\	hoc	.	4d\	.	.	.	.	.	.	.	.
=71	=71	=71	=71	=71	=71	=71	=71	=71	=71	=71	=71	=71	=71	=71
2.AA/	.	#	2AA/	pa-	.	4.c#X\	.	.	2.r	.	.	2.r	.	.
.	.	.	.	.	.	8B\	.	.	.	.	.	.	.	.
.	.	.	4AA/	-ne	.	4A\	-ne	.	.	.	.	.	.	.
=72	=72	=72	=72	=72	=72	=72	=72	=72	=72	=72	=72	=72	=72	=72
!	!	!	!LO:TX:b:i:t=9	!	!	!LO:TX:b:i:t=5	!	!	!	!	!	!	!	!
!	!	!	!LO:N:vis=00	!	!	!LO:N:vis=00	!	!	!	!	!	!	!	!
4D\	.	.	0.r	.	.	0.r	.	.	2.f#\	ui-	.	2.dd\	ui-	.
4d\	.	.	.	.	.	.	.	.	.	.	.	.	.	.
4d\	.	.	.	.	.	.	.	.	.	.	.	.	.	.
=73	=73	=73	=73	=73	=73	=73	=73	=73	=73	=73	=73	=73	=73	=73
4cn\	.	.	.	.	.	.	.	.	2.a\	-uet	.	2.dd\	-uet	.
4c\	.	.	.	.	.	.	.	.	.	.	.	.	.	.
4c\	.	.	.	.	.	.	.	.	.	.	.	.	.	.
=74	=74	=74	=74	=74	=74	=74	=74	=74	=74	=74	=74	=74	=74	=74
4B\	.	.	.	.	.	.	.	.	(4d\	ui-	.	4gg\	vi-	.
4G\	.	.	.	.	.	.	.	.	2g\)	-uet	.	2b\	-uet	.
4G\	.	.	.	.	.	.	.	.	.	.	.	.	.	.
=75	=75	=75	=75	=75	=75	=75	=75	=75	=75	=75	=75	=75	=75	=75
2.D\	.	.	.	.	.	.	.	.	(4f#\	ui-	.	(4a\	ui-	.
.	.	.	.	.	.	.	.	.	4g\)	.	.	4b\)	.	.
.	.	.	.	.	.	.	.	.	4a\	-vet	.	4cc\	-uet	.
=76	=76	=76	=76	=76	=76	=76	=76	=76	=76	=76	=76	=76	=76	=76
!	!	!	!LO:N:vis=00	!	!	!	!	!	!	!	!	!	!	!
4D\	.	.	0.r	.	.	2.r	.	.	4a\	in	.	4dd\	in	.
4D\	.	7	.	.	.	.	.	.	2f#\	ae-	.	2cc\	ae-	.
4D\	.	.	.	.	.	.	.	.	.	.	.	.	.	.
=77	=77	=77	=77	=77	=77	=77	=77	=77	=77	=77	=77	=77	=77	=77
4G\	.	.	.	.	.	2.G/	ui-	.	2g\	-ter-	.	4b\	-ter-	.
!LO:TX:t=T.	!	!	!	!	!	!	!	!	!	!	!	!	!	!
4G\	.	.	.	.	.	.	.	.	.	.	.	8a\L	-num	.
.	.	.	.	.	.	.	.	.	.	.	.	8b\J	.	.
4G\	.	.	.	.	.	.	.	.	4g\	-num	.	4g\	.	.
=78	=78	=78	=78	=78	=78	=78	=78	=78	=78	=78	=78	=78	=78	=78
!	!	!	!	!	!	!	!	!	!LO:TX:b:i:t=3	!	!	!LO:TX:b:i:t=3	!	!
!	!	!	!	!	!	!	!	!	!LO:N:vis=0	!	!	!LO:N:vis=0	!	!
4F#\	.	.	.	.	.	2.d\	uet	.	1.r	.	.	1.r	.	.
4F#\	.	.	.	.	.	.	.	.	.	.	.	.	.	.
4F#\	.	.	.	.	.	.	.	.	.	.	.	.	.	.
=79	=79	=79	=79	=79	=79	=79	=79	=79	=79	=79	=79	=79	=79	=79
4E\	.	.	.	.	.	2g\	in	.	.	.	.	.	.	.
4E\	.	.	.	.	.	.	.	.	.	.	.	.	.	.
4E\	.	.	.	.	.	4g\	ae-	.	.	.	.	.	.	.
=80	=80	=80	=80	=80	=80	=80	=80	=80	=80	=80	=80	=80	=80	=80
4D\	.	.	2.r	.	.	8f#\L	-ter-	.	2.r	.	.	2.r	.	.
.	.	.	.	.	.	8e\J	.	.	.	.	.	.	.	.
4D\	.	.	.	.	.	2d\	-n(um)	.	.	.	.	.	.	.
4D\	.	.	.	.	.	.	.	.	.	.	.	.	.	.
=81	=81	=81	=81	=81	=81	=81	=81	=81	=81	=81	=81	=81	=81	=81
!	!	!	!	!	!	!LO:TX:b:i:t=6	!	!	!	!	!	!	!	!
!	!	!	!	!	!	!LO:N:vis=00	!	!	!	!	!	!	!	!
2D/	.	.	2D/	vi-	.	0.r	.	.	2.f#\	ui-	.	2.a\	ui-	.
4Cn/	.	.	4Cn/	-uet	.	.	.	.	.	.	.	.	.	.
=82	=82	=82	=82	=82	=82	=82	=82	=82	=82	=82	=82	=82	=82	=82
4BB/	.	.	(4BB/	in	.	.	.	.	2.g\	-uet	.	2.b\	-uet	.
4AA/	.	.	4AA/)	.	.	.	.	.	.	.	.	.	.	.
4GG/	.	.	4GG/	ae-	.	.	.	.	.	.	.	.	.	.
=83	=83	=83	=83	=83	=83	=83	=83	=83	=83	=83	=83	=83	=83	=83
2.D\	.	.	2.D/	-ter-	.	.	.	.	(4a\	in	.	(4cc\	in	.
.	.	.	.	.	.	.	.	.	4g\)	.	.	4b\)	.	.
.	.	.	.	.	.	.	.	.	4f#\	ae-	.	4a\	ae-	.
=84	=84	=84	=84	=84	=84	=84	=84	=84	=84	=84	=84	=84	=84	=84
2.GG/	.	.	2.GG/	-num	.	.	.	.	(4g\	-ter-	.	(4b\	-ter-	.
.	.	.	.	.	.	.	.	.	4a\)	.	.	4a\)	.	.
.	.	.	.	.	.	.	.	.	4b\	-num	.	4g\	-num	.
=85	=85	=85	=85	=85	=85	=85	=85	=85	=85	=85	=85	=85	=85	=85
!	!	!	!	!	!	!	!	!	!LO:TX:b:i:t=3	!	!	!LO:TX:b:i:t=1	!	!
!	!	!	!	!	!	!LO:N:vis=0	!	!	!LO:N:vis=0	!	!	!	!	!
4GG/	.	.	(>4GG/	vi-	.	1.r	.	.	1.r	.	.	2.r	.	.
!LO:TX:i:t=B.	!	!	!	!	!	!	!	!	!	!	!	!	!	!
4BB/	.	.	4BB/)	.	.	.	.	.	.	.	.	.	.	.
4GG/	.	.	4GG/	-vet	.	.	.	.	.	.	.	.	.	.
=86	=86	=86	=86	=86	=86	=86	=86	=86	=86	=86	=86	=86	=86	=86
!LO:TX:t=C.	!	!	!	!	!	!	!	!	!	!	!	!	!	!
!	!LO:DY:b:t=p.	!	!	!	!	!	!	!	!	!	!	!	!	!LO:DY:b:t=p.
2.D\	p	.	2.D/	in	.	.	.	.	.	.	.	2dd\	man-	p
.	.	.	.	.	.	.	.	.	.	.	.	4dd\	-du-	.
=87	=87	=87	=87	=87	=87	=87	=87	=87	=87	=87	=87	=87	=87	=87
!LO:TX:t=T	!	!	!	!	!	!	!	!	!	!	!	!	!	!
2.D\	.	6 4	2.D/	ae-	.	2G/	man-	.	2.r	.	.	4gg\	-ca-	.
.	.	.	.	.	.	.	.	.	.	.	.	4gg\	-ue-	.
.	.	.	.	.	.	4G/	-du-	.	.	.	.	4gg\	-rit	.
=88	=88	=88	=88	=88	=88	=88	=88	=88	=88	=88	=88	=88	=88	=88
!LO:TX:t=A.	!	!	!	!	!	!	!	!	!	!	!	!	!	!
2.D\	.	5 3	[>2.D/	-ter-	.	4d\	-ca-	.	2.d\	ex	.	4ff#\	ex-	.
.	.	.	.	.	.	4d\	-ve-	.	.	.	.	8ee\L	.	.
.	.	.	.	.	.	.	.	.	.	.	.	8ff#\J	.	.
.	.	.	.	.	.	4d\	-rit	.	.	.	.	4dd\	-hoc	.
=89	=89	=89	=89	=89	=89	=89	=89	=89	=89	=89	=89	=89	=89	=89
2.D\	.	6 4	2.D/]	.	.	2B\	ex-	.	2.g\	hoc	.	2.dd\	pa-	.
.	.	.	.	.	.	4B\	-hoc	.	.	.	.	.	.	.
=90	=90	=90	=90	=90	=90	=90	=90	=90	=90	=90	=90	=90	=90	=90
2.D\	.	5 3	2.D/	-num	.	4A/	pa-	.	4f#\	pa-	.	2.dd\	-ne	.
.	.	.	.	.	.	8G/L	.	.	8e\L	.	.	.	.	.
.	.	.	.	.	.	8A/J	.	.	8f#\J	.	.	.	.	.
.	.	.	.	.	.	4F#/	-ne	.	4d\	-ne	.	.	.	.
=91	=91	=91	=91	=91	=91	=91	=91	=91	=91	=91	=91	=91	=91	=91
!	!LO:DY:b:t=f.	!	!	!	!LO:DY:b	!	!	!LO:DY:b:t=f.	!	!	!LO:DY:b:t=f.	!	!	!LO:DY:b:t=f.
2G\	f	.	2G\	ui-	f	2d\	ui-	f	2d\	ui-	f	2b\	vi-	f
4G\	.	.	4G\	-uet	.	4d\	-uet	.	4g\	-uet	.	4b\	-vet	.
=92	=92	=92	=92	=92	=92	=92	=92	=92	=92	=92	=92	=92	=92	=92
8c\L	.	.	(8c\L	in	.	2e\	ui-	.	(4f#\	in	.	2cc\	in	.
8d\J	.	.	8d\J	.	.	.	.	.	.	.	.	.	.	.
4e\	.	.	4e\)	.	.	.	.	.	4a\)	.	.	.	.	.
4c\	.	.	4c\	ae-	.	4e\	-uet	.	[4g\	ae-	.	4cc\	ae-	.
=93	=93	=93	=93	=93	=93	=93	=93	=93	=93	=93	=93	=93	=93	=93
4d\	.	.	4d\	-ter-	.	2.d\	in	.	4g\]	.	.	2cc\	-ter-	.
4F#\	.	.	4F#\	.	.	.	.	.	2f#\	-ter-	.	.	.	.
4G\	.	.	4G\	.	.	.	.	.	.	.	.	4b\	.	.
=94	=94	=94	=94	=94	=94	=94	=94	=94	=94	=94	=94	=94	=94	=94
4C/	.	.	4C/	.	.	4e\	ae-	.	4g\	-num	.	4cc\	.	.
2D/	.	.	2D/	.	.	2d\	-ter-	.	4r	.	.	2a\	.	.
.	.	.	.	.	.	.	.	.	4r	.	.	.	.	.
=95	=95	=95	=95	=95	=95	=95	=95	=95	=95	=95	=95	=95	=95	=95
!	!	!	!	!	!	!	!	!	!LO:TX:b:i:t=2	!	!	!	!	!
!	!	!	!	!	!	!	!	!	!LO:N:vis=0	!	!	!	!	!
4GG/	.	.	4GG/	-num	.	4d\	-num	.	1.r	.	.	4b\	-num	.
4BB/	.	.	4r	.	.	4r	.	.	.	.	.	4r	.	.
4GG/	.	.	4r	.	.	4r	.	.	.	.	.	4r	.	.
=96	=96	=96	=96	=96	=96	=96	=96	=96	=96	=96	=96	=96	=96	=96
!	!	!	!	!	!	!LO:TX:b:i:t=1	!	!	!	!	!	!	!	!
!LO:TX:i:t=B.C.	!	!	!	!	!	!	!	!	!	!	!	!	!	!
!	!	!	!	!	!	!	!	!	!	!	!	!	!	!LO:DY:b:t=p.
2.D\	.	.	2.D\	in	.	2.r	.	.	.	.	.	2dd\	man-	p
.	.	.	.	.	.	.	.	.	.	.	.	4dd\	-du-	.
=97	=97	=97	=97	=97	=97	=97	=97	=97	=97	=97	=97	=97	=97	=97
!LO:TX:t=T.	!	!	!	!	!	!	!	!	!	!	!	!	!	!
!	!	!	!	!	!	!	!	!	!LO:TX:t=P:problem=brak taktu	!	!	!	!	!
2.D\	.	6 4	2.D\	ae-	.	2G/	man-	.	2.ryy	.	.	4gg\	-ca-	.
.	.	.	.	.	.	.	.	.	.	.	.	4gg\	-ve-	.
.	.	.	.	.	.	4G/	-du-	.	.	.	.	4gg\	-rit	.
=98	=98	=98	=98	=98	=98	=98	=98	=98	=98	=98	=98	=98	=98	=98
!LO:TX:t=A.	!	!	!	!	!	!	!	!	!	!	!	!	!	!
!	!	!	!	!	!	!	!	!	!	!	!LO:DY:b:t=p.	!	!	!
2.D\	.	5 3	[2.D\	-ter-	.	4d\	-ca-	.	2.d\	ex	p	4ff#\	ex	.
.	.	.	.	.	.	4d\	-ve-	.	.	.	.	8ee\L	.	.
.	.	.	.	.	.	.	.	.	.	.	.	8ff#\J	.	.
.	.	.	.	.	.	4d\	-rit	.	.	.	.	4dd\	hoc	.
=99	=99	=99	=99	=99	=99	=99	=99	=99	=99	=99	=99	=99	=99	=99
2.D\	.	6 4	2.D\]	.	.	2B\	ex	.	2.g\	hoc	.	2.dd\	pa-	.
.	.	.	.	.	.	4B\	hoc	.	.	.	.	.	.	.
=100	=100	=100	=100	=100	=100	=100	=100	=100	=100	=100	=100	=100	=100	=100
2.D\	.	5 3	2.D\	-num	.	4A/	pa-	.	4f#\	pa-	.	2.dd\	-ne	.
.	.	.	.	.	.	8G/L	.	.	8e\L	.	.	.	.	.
.	.	.	.	.	.	8A/J	.	.	8f#\J	.	.	.	.	.
.	.	.	.	.	.	4F#/	-ne	.	4d\	-ne	.	.	.	.
=101	=101	=101	=101	=101	=101	=101	=101	=101	=101	=101	=101	=101	=101	=101
!	!LO:DY:b:t=f.	!	!	!	!LO:DY:b	!	!	!LO:DY:b:t=f.	!	!	!LO:DY:b	!	!	!LO:DY:b:t=f.
2G\	f	.	2G\	ui-	f	2d\	ui-	f	2d\	vi-	f	2b\	ui-	f
4G\	.	.	4G\	-uet	.	4d\	-vet	.	4g\	-uet	.	4b\	-uet	.
=102	=102	=102	=102	=102	=102	=102	=102	=102	=102	=102	=102	=102	=102	=102
8c\L	.	.	8c\L	in	.	2e\	ui-	.	2g\	vi-	.	2cc\	in	.
8d\J	.	.	8d\J	.	.	.	.	.	.	.	.	.	.	.
4e\	.	.	4e\	.	.	.	.	.	.	.	.	.	.	.
!	!	!	!	!	!	!	!	!	!	!	!	!LO:SIC:v:l:s=ae-	!	!
4c\	.	.	4c\	a-	.	4e\	-uet	.	4g\	-uet	.	4cc\	e-	.
=103	=103	=103	=103	=103	=103	=103	=103	=103	=103	=103	=103	=103	=103	=103
4d\	.	.	4d\	-ter-	.	2.d\	in	.	(4f#\	in	.	2cc\	-ter-	.
4F#\	.	.	4F#\	.	.	.	.	.	4a\)	.	.	.	.	.
4G\	.	.	4G\	.	.	.	.	.	[4g\	ae-	.	4b\	.	.
=104	=104	=104	=104	=104	=104	=104	=104	=104	=104	=104	=104	=104	=104	=104
4C\	.	.	4C/	.	.	4e\	ae-	.	4g\]	.	.	4cc\	.	.
.	.	.	.	.	.	.	.	.	.	.	.	8qqb/	.	.
2D\	.	.	2D/	.	.	2d\	-ter-	.	2f#\	-ter-	.	2a\	.	.
=105	=105	=105	=105	=105	=105	=105	=105	=105	=105	=105	=105	=105	=105	=105
4G\	.	.	4G\	-n(um)	.	4d\	-n(um)	.	4g\	-num	.	4b\	-num	.
4c\	.	.	4c\	ui-	.	4e\	ui-	.	4g\	vi-	.	4cc\	vi-	.
4G\	.	.	4G\	-uet	.	4d\	-uet	.	4g\	-uet	.	4b\	-uet	.
=106	=106	=106	=106	=106	=106	=106	=106	=106	=106	=106	=106	=106	=106	=106
4c\	.	.	4c\	ui-	.	4e\	ui-	.	4g\	ui-	.	4cc\	vi-	.
4G\	.	.	4G\	-uet	.	4d\	-uet	.	4g\	-uet	.	4b\	-uet	.
4r	.	.	4r	.	.	4r	.	.	4r	.	.	4r	.	.
=107	=107	=107	=107	=107	=107	=107	=107	=107	=107	=107	=107	=107	=107	=107
!	!	!	!LO:TX:b:i:t=1	!	!	!LO:TX:b:i:t=1	!	!	!LO:TX:b:i:t=1	!	!	!	!	!
8C\L	.	.	2.r	.	.	2.r	.	.	2.r	.	.	2cc\	ui-	.
8D\J	.	.	.	.	.	.	.	.	.	.	.	.	.	.
4E\	.	.	.	.	.	.	.	.	.	.	.	.	.	.
4C\	.	.	.	.	.	.	.	.	.	.	.	4cc\	-uet	.
=108	=108	=108	=108	=108	=108	=108	=108	=108	=108	=108	=108	=108	=108	=108
4D\	.	.	4D\	in	.	4r	.	.	(4f#\	in	.	2cc\	in	.
4F#\	.	.	(4F#\	ae-	.	4d\	in	.	4a\)	.	.	.	.	.
4G\	.	.	4G\)	.	.	4d\	ae-	.	4g\	e-	.	4b\	ae-	.
=109	=109	=109	=109	=109	=109	=109	=109	=109	=109	=109	=109	=109	=109	=109
4C\	.	.	4C/	-ter-	.	4e\	-ter-	.	4g\	.	.	8b\L	.	.
.	.	.	.	.	.	.	.	.	.	.	.	8cc\J	.	.
.	.	.	.	.	.	.	.	.	.	.	.	8qqb/	.	.
2D\	.	.	2D/	.	.	2d\	.	.	2f#\	-ter-	.	2a\	-ter-	.
=110	=110	=110	=110	=110	=110	=110	=110	=110	=110	=110	=110	=110	=110	=110
4GG/	.	.	4GG/	-num	.	4d\	-num	.	4g\	-num	.	4g\	-num	.
4r	.	.	4r	.	.	4r	.	.	4r	.	.	4r	.	.
!	!	!	!	!	!	!	!	!	!LO:TX:b:t=Finis	!	!	!	!	!
!	!	!	!	!	!	!	!	!	!	!	!	!LO:TX:b:t=Finis	!	!
4r	.	.	4r	.	.	4r	.	.	4r	.	.	4r	.	.
==	==	==	==	==	==	==	==	==	==	==	==	==	==	==
*-	*-	*-	*-	*-	*-	*-	*-	*-	*-	*-	*-	*-	*-	*-
!!!RDF**kern: > = above
!!!RDF**kern: < = below
!!!system-decoration: [(s1,s2,s3,s4)][(s5)]
!!!EED: Andrzej Borzym
!!!EEV: 2021-02-23
!!!ENC: Anastazja Marusiak
!!!END: 2021-02-10
!!!YEC: Copyright 2022 Narodowy Instytut Fryderyka Chopina (https://polishscores.org)
!!!YEM: Licence CC BY 4.0 (https://creativecommons.org/licenses/by/4.0)
